X:1
T:The Road to Lisdoonvarna
C:Traditional
N:Play 4 times
N:The Cashel Set, figure 5, tune 1 of 2
Z:Gordon Turnbull, Edinburgh
Z:gturnbull@theflow.org.uk
Z:http://www.theflow.org.uk
R:Slide
M:12/8
L:1/8
K:Edor
E2 B B2 A B2 c d3 | F2 A ABA D2 E FED |\
E2 B B2 A B2 c d3 | cdc B2 A B2 E E3 :|
e2 f gfe d2 B Bcd | c2 A ABc d2 B B2 d |\
e2 f gfe d2 B Bcd | cdc B2 A B2 E E3 :|
